tools/download-figma-icons/icons/outlined-medium/compass.svg

<svg width="24" height="24" viewBox="0 0 24 24" fill="none" xmlns="http://www.w3.org/2000/svg">
<path fill-rule="evenodd" clip-rule="evenodd" d="M3.75024 14.319C3.75024 18.8295 7.41999 22.5 11.9312 22.5C16.4432 22.5 20.113 18.8295 20.113 14.319C20.113 9.80698 16.4432 6.13723 11.9312 6.13723C7.41999 6.13723 3.75024 9.80698 3.75024 14.319ZM11.9313 1.5C11.0665 1.5 10.363 2.2035 10.363 3.069C10.363 3.93375 11.0665 4.63725 11.9313 4.63725C12.796 4.63725 13.5003 3.93375 13.5003 3.069C13.5003 2.2035 12.796 1.5 11.9313 1.5ZM15.0002 3.069C15.0002 3.7815 14.746 4.43025 14.3357 4.95225C18.5125 6.02475 21.613 9.8115 21.613 14.319C21.613 19.6567 17.2697 24 11.9312 24C6.59349 24 2.25024 19.6567 2.25024 14.319C2.25024 9.8115 5.35074 6.02475 9.52674 4.95225C9.11724 4.43025 8.86299 3.7815 8.86299 3.069C8.86299 1.377 10.2392 0 11.9312 0C13.6232 0 15.0002 1.377 15.0002 3.069ZM11.6293 12.9556L13.2943 14.6206L14.7328 11.5171L11.6293 12.9556ZM12.2338 15.6811L10.5688 14.0161L9.13028 17.1196L12.2338 15.6811ZM10.025 12.0466L15.9583 9.29558C16.244 9.16358 16.5823 9.22358 16.8043 9.44633C17.027 9.66833 17.087 10.0066 16.9543 10.2923L14.2033 16.2256C14.1283 16.3861 13.9993 16.5151 13.8388 16.5901L7.90479 19.3411C7.80429 19.3876 7.69629 19.4108 7.58979 19.4108C7.39479 19.4108 7.20279 19.3343 7.05954 19.1911C6.83679 18.9683 6.77679 18.6308 6.90879 18.3451L9.65979 12.4118C9.73479 12.2506 9.86379 12.1216 10.025 12.0466Z" fill="black"/>
</svg>

<svg xmlns="http://www.w3.org/2000/svg" width="24" height="24" fill="none" viewBox="0 0 24 24"><path fill="currentColor" fill-rule="evenodd" d="M3.75 14.319c0 4.51 3.67 8.181 8.181 8.181 4.512 0 8.182-3.67 8.182-8.181 0-4.512-3.67-8.182-8.182-8.182-4.511 0-8.18 3.67-8.18 8.182M11.931 1.5a1.57 1.57 0 0 0-1.568 1.569 1.57 1.57 0 0 0 1.568 1.568 1.57 1.57 0 0 0 1.57-1.568A1.57 1.57 0 0 0 11.93 1.5M15 3.069c0 .712-.255 1.361-.665 1.883 4.176 1.073 7.277 4.86 7.277 9.367 0 5.338-4.343 9.681-9.682 9.681-5.338 0-9.68-4.343-9.68-9.681 0-4.507 3.1-8.294 7.276-9.367a3.04 3.04 0 0 1-.664-1.883A3.07 3.07 0 0 1 11.931 0a3.073 3.073 0 0 1 3.07 3.069m-3.372 9.887 1.665 1.665 1.439-3.104zm.605 2.725-1.665-1.665L9.13 17.12zm-2.209-3.634 5.933-2.751a.75.75 0 0 1 .996.996l-2.75 5.934a.76.76 0 0 1-.365.364l-5.934 2.751a.75.75 0 0 1-.845-.15.75.75 0 0 1-.151-.846l2.75-5.933a.75.75 0 0 1 .366-.365" clip-rule="evenodd"/></svg>
